austria/municipalities/70311.svg

<?xml version="1.0" encoding="UTF-8"?>
<!DOCTYPE svg PUBLIC "-//W3C//DTD SVG 1.1//EN" "http://www.w3.org/Graphics/SVG/1.1/DTD/svg11.dtd">
<svg xmlns="http://www.w3.org/2000/svg" version="1.1" width="166px" height="192px" style="shape-rendering:geometricPrecision; text-rendering:geometricPrecision; image-rendering:optimizeQuality; fill-rule:evenodd; clip-rule:evenodd" xmlns:xlink="http://www.w3.org/1999/xlink">
<g><path style="opacity:1" fill="#0e0c07" d="M -0.5,-0.5 C 54.8333,-0.5 110.167,-0.5 165.5,-0.5C 165.5,39.5 165.5,79.5 165.5,119.5C 157.038,159.629 132.705,183.629 92.5,191.5C 85.5,191.5 78.5,191.5 71.5,191.5C 30.9271,182.927 6.9271,158.261 -0.5,117.5C -0.5,78.1667 -0.5,38.8333 -0.5,-0.5 Z"/></g>
<g><path style="opacity:1" fill="#e4a31c" d="M 10.5,9.5 C 7.93457,13.8435 5.93457,18.5102 4.5,23.5C 3.50929,17.021 3.17596,10.3543 3.5,3.5C 6.51838,3.33537 9.51838,3.50204 12.5,4C 11.1387,5.5843 10.472,7.41764 10.5,9.5 Z"/></g>
<g><path style="opacity:1" fill="#e5a41c" d="M 30.5,7.5 C 27.6554,12.5307 25.3221,17.8641 23.5,23.5C 21.7263,22.6304 20.393,21.297 19.5,19.5C 18.6303,14.7769 16.9637,10.4436 14.5,6.5C 14.5,5.5 14.5,4.5 14.5,3.5C 20.1764,3.33391 25.8431,3.50058 31.5,4C 30.6634,5.01127 30.33,6.17793 30.5,7.5 Z"/></g>
<g><path style="opacity:1" fill="#e4a31c" d="M 50.5,5.5 C 47.7344,10.117 45.7344,15.117 44.5,20.5C 43.4415,21.6002 42.6082,22.9336 42,24.5C 41.6174,23.944 41.1174,23.6107 40.5,23.5C 39.2656,18.117 37.2656,13.117 34.5,8.5C 34.5792,7.06953 34.2458,5.73619 33.5,4.5C 36.3333,4.16667 39.1667,3.83333 42,3.5C 45.2515,3.51911 48.0849,4.18578 50.5,5.5 Z"/></g>
<g><path style="opacity:1" fill="#e7a51c" d="M 160.5,91.5 C 158.315,95.2132 156.648,99.2132 155.5,103.5C 154.167,105.5 152.833,107.5 151.5,109.5C 149.067,101.962 146.067,94.6292 142.5,87.5C 139.105,94.6867 136.105,102.02 133.5,109.5C 132.5,108.167 131.5,106.833 130.5,105.5C 129.352,101.213 127.685,97.2132 125.5,93.5C 124.282,86.5164 122.949,86.183 121.5,92.5C 118.935,96.8435 116.935,101.51 115.5,106.5C 114.778,107.551 113.778,108.218 112.5,108.5C 111.352,104.213 109.685,100.213 107.5,96.5C 107.293,93.7594 106.293,91.4261 104.5,89.5C 104.167,86.8333 103.833,86.8333 103.5,89.5C 101.707,91.4261 100.707,93.7594 100.5,96.5C 98.315,100.213 96.6483,104.213 95.5,108.5C 94.2223,108.218 93.2223,107.551 92.5,106.5C 79.9327,72.4521 66.5994,38.7855 52.5,5.5C 88.4847,3.50637 124.818,2.8397 161.5,3.5C 161.817,32.8773 161.484,62.2106 160.5,91.5 Z"/></g>
<g><path style="opacity:1" fill="#185a2a" d="M 14.5,6.5 C 16.9637,10.4436 18.6303,14.7769 19.5,19.5C 19.6726,22.1795 20.6726,24.5128 22.5,26.5C 23.3857,25.675 23.719,24.675 23.5,23.5C 25.3221,17.8641 27.6554,12.5307 30.5,7.5C 31.2216,7.08247 31.7216,6.4158 32,5.5C 32.8518,6.57075 33.6851,7.57075 34.5,8.5C 37.2656,13.117 39.2656,18.117 40.5,23.5C 40.3118,25.1033 40.8118,26.4366 42,27.5C 43.4114,25.3496 44.2447,23.0163 44.5,20.5C 45.7344,15.117 47.7344,10.117 50.5,5.5C 51.1667,5.5 51.8333,5.5 52.5,5.5C 66.5994,38.7855 79.9327,72.4521 92.5,106.5C 92.3832,108.484 93.0499,110.15 94.5,111.5C 95.3857,110.675 95.719,109.675 95.5,108.5C 96.6483,104.213 98.315,100.213 100.5,96.5C 102.293,94.5739 103.293,92.2406 103.5,89.5C 103.833,86.8333 104.167,86.8333 104.5,89.5C 104.707,92.2406 105.707,94.5739 107.5,96.5C 109.685,100.213 111.352,104.213 112.5,108.5C 112.281,109.675 112.614,110.675 113.5,111.5C 114.95,110.15 115.617,108.484 115.5,106.5C 116.935,101.51 118.935,96.8435 121.5,92.5C 122.222,92.0825 122.722,91.4158 123,90.5C 123.852,91.5707 124.685,92.5707 125.5,93.5C 127.685,97.2132 129.352,101.213 130.5,105.5C 130.504,107.842 131.337,109.842 133,111.5C 133.464,110.906 133.631,110.239 133.5,109.5C 136.105,102.02 139.105,94.6867 142.5,87.5C 146.067,94.6292 149.067,101.962 151.5,109.5C 151.393,111.379 151.893,111.712 153,110.5C 154.411,108.35 155.245,106.016 155.5,103.5C 156.648,99.2132 158.315,95.2132 160.5,91.5C 166.433,133.378 150.433,163.545 112.5,182C 71.1755,195.115 38.3422,183.949 14,148.5C 8.25364,138.594 4.92031,127.927 4,116.5C 3.18199,85.458 3.34865,54.458 4.5,23.5C 5.93457,18.5102 7.93457,13.8435 10.5,9.5C 11.5585,8.39977 12.3918,7.06644 13,5.5C 13.3826,6.05596 13.8826,6.38929 14.5,6.5 Z"/></g>
<g><path style="opacity:1" fill="#2b2515" d="M 19.5,19.5 C 20.393,21.297 21.7263,22.6304 23.5,23.5C 23.719,24.675 23.3857,25.675 22.5,26.5C 20.6726,24.5128 19.6726,22.1795 19.5,19.5 Z"/></g>
<g><path style="opacity:1" fill="#1b2113" d="M 44.5,20.5 C 44.2447,23.0163 43.4114,25.3496 42,27.5C 40.8118,26.4366 40.3118,25.1033 40.5,23.5C 41.1174,23.6107 41.6174,23.944 42,24.5C 42.6082,22.9336 43.4415,21.6002 44.5,20.5 Z"/></g>
<g><path style="opacity:1" fill="#17190f" d="M 132.5,37.5 C 132.821,42.6946 132.487,47.6946 131.5,52.5C 127.473,50.6416 123.14,49.9749 118.5,50.5C 118.334,55.1785 118.501,59.8452 119,64.5C 119.346,66.8477 120.513,68.6811 122.5,70C 117.136,70.8295 111.802,70.6628 106.5,69.5C 107.145,68.354 107.978,67.354 109,66.5C 109.499,61.1771 109.666,55.8437 109.5,50.5C 106.15,50.335 102.817,50.5017 99.5,51C 98.0692,51.4652 96.9025,52.2986 96,53.5C 95.3333,48.1667 95.3333,42.8333 96,37.5C 96.9025,38.7014 98.0692,39.5348 99.5,40C 102.817,40.4983 106.15,40.665 109.5,40.5C 110.261,35.6386 109.261,31.3052 106.5,27.5C 111.802,26.3372 117.136,26.1705 122.5,27C 119.036,30.7846 117.702,35.2846 118.5,40.5C 122.182,40.6653 125.848,40.4986 129.5,40C 130.373,38.955 131.373,38.1217 132.5,37.5 Z"/></g>
<g><path style="opacity:1" fill="#18592a" d="M 109.5,29.5 C 112.287,28.5233 115.287,28.19 118.5,28.5C 117.686,33.1191 117.353,37.7858 117.5,42.5C 121.182,42.6653 124.848,42.4986 128.5,42C 129.416,41.6258 130.25,41.1258 131,40.5C 131.667,43.8333 131.667,47.1667 131,50.5C 126.706,48.7518 122.206,48.0852 117.5,48.5C 117.287,55.2105 117.62,61.8772 118.5,68.5C 115.482,68.6646 112.482,68.498 109.5,68C 110.478,61.5898 110.811,55.0898 110.5,48.5C 106.119,48.3718 101.785,48.7051 97.5,49.5C 97.5,46.8333 97.5,44.1667 97.5,41.5C 101.796,42.4625 106.129,42.6292 110.5,42C 111.955,37.6126 111.622,33.4459 109.5,29.5 Z"/></g>
<g><path style="opacity:1" fill="#8d6822" d="M 132.5,37.5 C 133.815,42.6803 133.815,48.0136 132.5,53.5C 131.893,53.3764 131.56,53.0431 131.5,52.5C 132.487,47.6946 132.821,42.6946 132.5,37.5 Z"/></g>
<g><path style="opacity:1" fill="#212213" d="M 125.5,93.5 C 124.685,92.5707 123.852,91.5707 123,90.5C 122.722,91.4158 122.222,92.0825 121.5,92.5C 122.949,86.183 124.282,86.5164 125.5,93.5 Z"/></g>
<g><path style="opacity:1" fill="#1f2416" d="M 103.5,89.5 C 103.293,92.2406 102.293,94.5739 100.5,96.5C 100.707,93.7594 101.707,91.4261 103.5,89.5 Z"/></g>
<g><path style="opacity:1" fill="#262515" d="M 104.5,89.5 C 106.293,91.4261 107.293,93.7594 107.5,96.5C 105.707,94.5739 104.707,92.2406 104.5,89.5 Z"/></g>
<g><path style="opacity:1" fill="#1b2012" d="M 92.5,106.5 C 93.2223,107.551 94.2223,108.218 95.5,108.5C 95.719,109.675 95.3857,110.675 94.5,111.5C 93.0499,110.15 92.3832,108.484 92.5,106.5 Z"/></g>
<g><path style="opacity:1" fill="#17180f" d="M 130.5,105.5 C 131.5,106.833 132.5,108.167 133.5,109.5C 133.631,110.239 133.464,110.906 133,111.5C 131.337,109.842 130.504,107.842 130.5,105.5 Z"/></g>
<g><path style="opacity:1" fill="#181d12" d="M 155.5,103.5 C 155.245,106.016 154.411,108.35 153,110.5C 151.893,111.712 151.393,111.379 151.5,109.5C 152.833,107.5 154.167,105.5 155.5,103.5 Z"/></g>
<g><path style="opacity:1" fill="#212414" d="M 115.5,106.5 C 115.617,108.484 114.95,110.15 113.5,111.5C 112.614,110.675 112.281,109.675 112.5,108.5C 113.778,108.218 114.778,107.551 115.5,106.5 Z"/></g>
<g><path style="opacity:1" fill="#fdfdfd" d="M -0.5,117.5 C 6.9271,158.261 30.9271,182.927 71.5,191.5C 47.5,191.5 23.5,191.5 -0.5,191.5C -0.5,166.833 -0.5,142.167 -0.5,117.5 Z"/></g>
<g><path style="opacity:1" fill="#fdfdfd" d="M 165.5,119.5 C 165.5,143.5 165.5,167.5 165.5,191.5C 141.167,191.5 116.833,191.5 92.5,191.5C 132.705,183.629 157.038,159.629 165.5,119.5 Z"/></g>
<g><path style="opacity:1" fill="#0a0b06" d="M 34.5,99.5 C 39.6803,98.1853 45.0136,98.1853 50.5,99.5C 47.7386,103.305 46.7386,107.639 47.5,112.5C 51.1817,112.665 54.8484,112.499 58.5,112C 59.3333,111.167 60.1667,110.333 61,109.5C 61.6667,114.833 61.6667,120.167 61,125.5C 60.0975,124.299 58.9308,123.465 57.5,123C 54.1832,122.502 50.8499,122.335 47.5,122.5C 47.334,127.844 47.5006,133.177 48,138.5C 48.4652,139.931 49.2986,141.097 50.5,142C 45.1667,142.667 39.8333,142.667 34.5,142C 36.4875,140.681 37.6541,138.848 38,136.5C 38.4992,131.845 38.6658,127.179 38.5,122.5C 34.8183,122.335 31.1516,122.501 27.5,123C 26.6667,123.833 25.8333,124.667 25,125.5C 24.3333,120.5 24.3333,115.5 25,110.5C 28.8012,112.926 32.9679,113.926 37.5,113.5C 37.6653,109.818 37.4986,106.152 37,102.5C 36.6232,101.058 35.7899,100.058 34.5,99.5 Z"/></g>
<g><path style="opacity:1" fill="#8f6a22" d="M 58.5,121.5 C 59.4731,119.052 59.8064,116.385 59.5,113.5C 60.2789,113.973 60.6123,115.307 60.5,117.5C 60.1667,119.167 59.8333,120.833 59.5,122.5C 58.8933,122.376 58.56,122.043 58.5,121.5 Z"/></g>
<g><path style="opacity:1" fill="#de9f1d" d="M 59.5,113.5 C 59.8064,116.385 59.4731,119.052 58.5,121.5C 54.5,121.5 50.5,121.5 46.5,121.5C 46.5,127.5 46.5,133.5 46.5,139.5C 44.0521,140.473 41.3854,140.806 38.5,140.5C 39.418,134.225 39.7513,127.892 39.5,121.5C 34.9014,121.2 30.4014,121.533 26,122.5C 25.3333,119.167 25.3333,115.833 26,112.5C 26.7504,113.126 27.5838,113.626 28.5,114C 32.1516,114.499 35.8183,114.665 39.5,114.5C 39.6655,110.486 39.4988,106.486 39,102.5C 38.5,102 38,101.5 37.5,101C 40.8333,100.333 44.1667,100.333 47.5,101C 46.5333,105.401 46.2,109.901 46.5,114.5C 50.8982,114.706 55.2315,114.373 59.5,113.5 Z"/></g>
<g><path style="opacity:1" fill="#8f6a22" d="M 46.5,139.5 C 47.0431,139.56 47.3764,139.893 47.5,140.5C 45.8333,140.833 44.1667,141.167 42.5,141.5C 40.3067,141.612 38.9733,141.279 38.5,140.5C 41.3854,140.806 44.0521,140.473 46.5,139.5 Z"/></g>
</svg>

<svg xmlns="http://www.w3.org/2000/svg" width="166" height="192" style="shape-rendering:geometricPrecision;text-rendering:geometricPrecision;image-rendering:optimizeQuality;fill-rule:evenodd;clip-rule:evenodd"><path style="opacity:1" fill="#0e0c07" d="M-.5-.5h166v120c-8.462 40.129-32.795 64.129-73 72h-21c-40.573-8.573-64.573-33.239-72-74V-.5z"/><path style="opacity:1" fill="#e4a31c" d="M10.5 9.5c-2.565 4.344-4.565 9.01-6 14-.99-6.479-1.324-13.146-1-20a40.937 40.937 0 0 1 9 .5c-1.361 1.584-2.028 3.418-2 5.5z"/><path style="opacity:1" fill="#e5a41c" d="M30.5 7.5a86.424 86.424 0 0 0-7 16c-1.774-.87-3.107-2.203-4-4-.87-4.723-2.536-9.056-5-13v-3c5.676-.166 11.343 0 17 .5-.837 1.011-1.17 2.178-1 3.5z"/><path style="opacity:1" fill="#e4a31c" d="M50.5 5.5c-2.766 4.617-4.766 9.617-6 15-1.059 1.1-1.892 2.434-2.5 4-.383-.556-.883-.89-1.5-1-1.234-5.383-3.234-10.383-6-15a6.845 6.845 0 0 0-1-4l8.5-1c3.252.02 6.085.686 8.5 2z"/><path style="opacity:1" fill="#e7a51c" d="M160.5 91.5c-2.185 3.713-3.852 7.713-5 12l-4 6a156.602 156.602 0 0 0-9-22 223.77 223.77 0 0 0-9 22l-3-4c-1.148-4.287-2.815-8.287-5-12-1.218-6.984-2.551-7.317-4-1-2.565 4.344-4.565 9.01-6 14-.722 1.051-1.722 1.718-3 2-1.148-4.287-2.815-8.287-5-12-.207-2.74-1.207-5.074-3-7-.333-2.667-.667-2.667-1 0-1.793 1.926-2.793 4.26-3 7-2.185 3.713-3.852 7.713-5 12-1.278-.282-2.278-.949-3-2a2307.206 2307.206 0 0 0-40-101c35.985-1.994 72.318-2.66 109-2a1983.22 1983.22 0 0 1-1 88z"/><path style="opacity:1" fill="#185a2a" d="M14.5 6.5c2.464 3.944 4.13 8.277 5 13 .173 2.68 1.173 5.013 3 7 .886-.825 1.219-1.825 1-3a86.424 86.424 0 0 1 7-16c.722-.418 1.222-1.084 1.5-2a81.634 81.634 0 0 0 2.5 3c2.766 4.617 4.766 9.617 6 15-.188 1.603.312 2.937 1.5 4 1.411-2.15 2.245-4.484 2.5-7 1.234-5.383 3.234-10.383 6-15h2a2307.206 2307.206 0 0 1 40 101c-.117 1.984.55 3.65 2 5 .886-.825 1.219-1.825 1-3 1.148-4.287 2.815-8.287 5-12 1.793-1.926 2.793-4.26 3-7 .333-2.667.667-2.667 1 0 .207 2.74 1.207 5.074 3 7 2.185 3.713 3.852 7.713 5 12-.219 1.175.114 2.175 1 3 1.45-1.35 2.117-3.016 2-5 1.435-4.99 3.435-9.656 6-14 .722-.418 1.222-1.084 1.5-2a81.819 81.819 0 0 0 2.5 3c2.185 3.713 3.852 7.713 5 12 .004 2.342.837 4.342 2.5 6a2.428 2.428 0 0 0 .5-2 223.77 223.77 0 0 1 9-22 156.602 156.602 0 0 1 9 22c-.107 1.879.393 2.212 1.5 1 1.411-2.15 2.245-4.484 2.5-7 1.148-4.287 2.815-8.287 5-12 5.933 41.878-10.067 72.045-48 90.5-41.325 13.115-74.158 1.949-98.5-33.5-5.746-9.906-9.08-20.573-10-32-.818-31.042-.651-62.042.5-93 1.435-4.99 3.435-9.656 6-14 1.059-1.1 1.892-2.434 2.5-4 .383.556.883.89 1.5 1z"/><path style="opacity:1" fill="#2b2515" d="M19.5 19.5c.893 1.797 2.226 3.13 4 4 .219 1.175-.114 2.175-1 3-1.827-1.987-2.827-4.32-3-7z"/><path style="opacity:1" fill="#1b2113" d="M44.5 20.5c-.255 2.516-1.089 4.85-2.5 7-1.188-1.063-1.688-2.397-1.5-4 .617.11 1.117.444 1.5 1 .608-1.566 1.441-2.9 2.5-4z"/><path style="opacity:1" fill="#17190f" d="M132.5 37.5c.321 5.195-.013 10.195-1 15-4.027-1.858-8.36-2.525-13-2a98.433 98.433 0 0 0 .5 14c.346 2.348 1.513 4.181 3.5 5.5a43.226 43.226 0 0 1-16-.5 10.756 10.756 0 0 1 2.5-3c.499-5.323.666-10.656.5-16a50.442 50.442 0 0 0-10 .5 6.975 6.975 0 0 0-3.5 2.5 64.247 64.247 0 0 1 0-16 6.975 6.975 0 0 0 3.5 2.5c3.317.498 6.65.665 10 .5.761-4.861-.239-9.195-3-13a43.226 43.226 0 0 1 16-.5c-3.464 3.785-4.798 8.285-4 13.5a60.94 60.94 0 0 0 11-.5 10.51 10.51 0 0 1 3-2.5z"/><path style="opacity:1" fill="#18592a" d="M109.5 29.5c2.787-.977 5.787-1.31 9-1a68.206 68.206 0 0 0-1 14 60.94 60.94 0 0 0 11-.5 9.465 9.465 0 0 0 2.5-1.5 25.238 25.238 0 0 1 0 10c-4.294-1.748-8.794-2.415-13.5-2-.213 6.71.12 13.377 1 20a40.939 40.939 0 0 1-9-.5 98.261 98.261 0 0 0 1-19.5 61.254 61.254 0 0 0-13 1v-8a35.705 35.705 0 0 0 13 .5c1.455-4.387 1.122-8.554-1-12.5z"/><path style="opacity:1" fill="#8d6822" d="M132.5 37.5c1.315 5.18 1.315 10.514 0 16-.607-.124-.94-.457-1-1 .987-4.805 1.321-9.805 1-15z"/><path style="opacity:1" fill="#212213" d="M125.5 93.5a81.819 81.819 0 0 1-2.5-3c-.278.916-.778 1.582-1.5 2 1.449-6.317 2.782-5.984 4 1z"/><path style="opacity:1" fill="#1f2416" d="M103.5 89.5c-.207 2.74-1.207 5.074-3 7 .207-2.74 1.207-5.074 3-7z"/><path style="opacity:1" fill="#262515" d="M104.5 89.5c1.793 1.926 2.793 4.26 3 7-1.793-1.926-2.793-4.26-3-7z"/><path style="opacity:1" fill="#1b2012" d="M92.5 106.5c.722 1.051 1.722 1.718 3 2 .219 1.175-.114 2.175-1 3-1.45-1.35-2.117-3.016-2-5z"/><path style="opacity:1" fill="#17180f" d="m130.5 105.5 3 4a2.428 2.428 0 0 1-.5 2c-1.663-1.658-2.496-3.658-2.5-6z"/><path style="opacity:1" fill="#181d12" d="M155.5 103.5c-.255 2.516-1.089 4.85-2.5 7-1.107 1.212-1.607.879-1.5-1l4-6z"/><path style="opacity:1" fill="#212414" d="M115.5 106.5c.117 1.984-.55 3.65-2 5-.886-.825-1.219-1.825-1-3 1.278-.282 2.278-.949 3-2z"/><path style="opacity:1" fill="#fdfdfd" d="M-.5 117.5c7.427 40.761 31.427 65.427 72 74h-72v-74zM165.5 119.5v72h-73c40.205-7.871 64.538-31.871 73-72z"/><path style="opacity:1" fill="#0a0b06" d="M34.5 99.5c5.18-1.315 10.514-1.315 16 0-2.761 3.805-3.761 8.139-3 13a60.93 60.93 0 0 0 11-.5l2.5-2.5a64.247 64.247 0 0 1 0 16 6.977 6.977 0 0 0-3.5-2.5 50.464 50.464 0 0 0-10-.5c-.166 5.344 0 10.677.5 16a6.977 6.977 0 0 0 2.5 3.5 64.218 64.218 0 0 1-16 0c1.987-1.319 3.154-3.152 3.5-5.5.5-4.655.666-9.321.5-14a60.93 60.93 0 0 0-11 .5l-2.5 2.5c-.667-5-.667-10 0-15 3.801 2.426 7.968 3.426 12.5 3a60.94 60.94 0 0 0-.5-11c-.377-1.442-1.21-2.442-2.5-3z"/><path style="opacity:1" fill="#8f6a22" d="M58.5 121.5c.973-2.448 1.306-5.115 1-8 .779.473 1.112 1.807 1 4l-1 5c-.607-.124-.94-.457-1-1z"/><path style="opacity:1" fill="#de9f1d" d="M59.5 113.5c.306 2.885-.027 5.552-1 8h-12v18c-2.448.973-5.115 1.306-8 1a103.017 103.017 0 0 0 1-19c-4.599-.3-9.099.033-13.5 1a25.249 25.249 0 0 1 0-10 9.457 9.457 0 0 0 2.5 1.5 60.93 60.93 0 0 0 11 .5 72.442 72.442 0 0 0-.5-12l-1.5-1.5a25.238 25.238 0 0 1 10 0c-.967 4.401-1.3 8.901-1 13.5a52.394 52.394 0 0 0 13-1z"/><path style="opacity:1" fill="#8f6a22" d="M46.5 139.5c.543.06.876.393 1 1l-5 1c-2.193.112-3.527-.221-4-1 2.885.306 5.552-.027 8-1z"/></svg>
